frontend/svgs/biz024.svg

<?xml version="1.0" encoding="UTF-8"?> <svg width="100px" height="100px" viewBox="0 0 100 100" version="1.1" xmlns="http://www.w3.org/2000/svg" xmlns:xlink="http://www.w3.org/1999/xlink"> <g id="24.-GBP" stroke="none" stroke-width="1" fill="none" fill-rule="evenodd" stroke-linecap="round" stroke-linejoin="round"> <rect id="Layer-1" stroke="#FEC957" stroke-width="4" fill="#FEC957" x="2" y="2" width="96" height="96" rx="23"></rect> <path d="M66.6700464,37.7929688 C66.6700464,29.2675781 63.1910425,23.2133789 52.367312,23.2133789 C41.5435815,23.2133789 35.8090479,29.3256905 35.8090479,37.1318396 C35.8090479,41.4361648 37.2681412,44.9379887 39.2379171,48.1479939 L40.1863278,49.6800419 C42.6667864,53.6925484 43.9799703,56.7566443 43.9799703,60.4043776 C43.9799703,67.9916627 36.9484709,72.295989 31.3309618,73.9009916 C31.3309618,73.9009916 40.8164167,70.7334483 46.3849094,71.2749087 C50.3286207,71.6583811 53.5592065,73.9009933 59.5787378,73.9009933 C65.598269,73.9009933 69.6124292,71.27491 69.6124292,71.27491" id="Layer-2" stroke="#FFFFFF" stroke-width="6"></path> <path d="M32.1039932,52.2178218 L51.9059734,52.2178218" id="Layer-3" stroke="#FFFFFF" stroke-width="6"></path> </g> </svg>

<svg width="100" height="100" xmlns="http://www.w3.org/2000/svg"><g fill="none" fill-rule="evenodd" stroke-linecap="round" stroke-linejoin="round"><rect stroke="#FEC957" stroke-width="4" fill="#FEC957" x="2" y="2" width="96" height="96" rx="23"/><path d="M66.67 37.793c0-8.525-3.479-14.58-14.303-14.58-10.823 0-16.558 6.113-16.558 13.919 0 4.304 1.46 7.806 3.429 11.016l.948 1.532c2.48 4.013 3.794 7.077 3.794 10.724 0 7.588-7.032 11.892-12.649 13.497 0 0 9.485-3.168 15.054-2.626 3.944.383 7.174 2.626 13.194 2.626 6.02 0 10.033-2.626 10.033-2.626M32.104 52.218h19.802" stroke="#FFF" stroke-width="6"/></g></svg>
